assets/img/blocks/imagecarousel/layout5.svg

<?xml version="1.0" encoding="UTF-8"?>
<svg width="147px" height="71px" viewBox="0 0 147 71" version="1.1" xmlns="http://www.w3.org/2000/svg" xmlns:xlink="http://www.w3.org/1999/xlink">
    <!-- Generator: Sketch 58 (84663) - https://sketch.com -->
    <title>Group 33</title>
    <desc>Created with Sketch.</desc>
    <g id="Assets" stroke="none" stroke-width="1" fill="none" fill-rule="evenodd">
        <g id="Artboard-Copy" transform="translate(-595.000000, -1039.000000)">
            <g id="Group-33" transform="translate(595.000000, 1039.540984)">
                <rect id="Rectangle-Copy-66" fill="#F2F3F7" x="1.42108547e-14" y="0" width="146.729508" height="70.2295082"></rect>
                <rect id="Rectangle-Copy-23" fill="#D6D9DD" x="18.8114754" y="11.2868852" width="109.106557" height="25.0819672" rx="2"></rect>
                <path d="M18.8114754,40.1311475 L28.0983607,40.1311475 C29.2029302,40.1311475 30.0983607,41.026578 30.0983607,42.1311475 L30.0983607,56.942623 C30.0983607,58.0471925 29.2029302,58.942623 28.0983607,58.942623 L18.8114754,58.942623 L18.8114754,58.942623 L18.8114754,40.1311475 Z" id="Rectangle-Copy-24" fill="#D6D9DD"></path>
                <rect id="Rectangle-Copy-25" fill="#D6D9DD" x="32.6065574" y="40.1311475" width="18.8114754" height="18.8114754" rx="2"></rect>
                <rect id="Rectangle-Copy-26" fill="#D6D9DD" x="53.9262295" y="40.1311475" width="18.8114754" height="18.8114754" rx="2"></rect>
                <rect id="Rectangle-Copy-27" fill="#D6D9DD" x="75.2459016" y="40.1311475" width="18.8114754" height="18.8114754" rx="2"></rect>
                <rect id="Rectangle-Copy-28" fill="#D6D9DD" x="96.5655738" y="40.1311475" width="18.8114754" height="18.8114754" rx="2"></rect>
                <path d="M119.885246,40.1311475 L127.918033,40.1311475 L127.918033,40.1311475 L127.918033,58.942623 L119.885246,58.942623 C118.780676,58.942623 117.885246,58.0471925 117.885246,56.942623 L117.885246,42.1311475 C117.885246,41.026578 118.780676,40.1311475 119.885246,40.1311475 Z" id="Rectangle-Copy-29" fill="#D6D9DD"></path>
            </g>
        </g>
    </g>
</svg>

<svg xmlns="http://www.w3.org/2000/svg" width="147" height="71"><g fill="none" fill-rule="evenodd" transform="translate(0 .541)"><path fill="#F2F3F7" d="M0 0h146.73v70.23H0z"/><rect width="109.107" height="25.082" x="18.811" y="11.287" fill="#D6D9DD" rx="2"/><path fill="#D6D9DD" d="M18.811 40.131h9.287a2 2 0 0 1 2 2v14.812a2 2 0 0 1-2 2h-9.287V40.13Z"/><rect width="18.811" height="18.811" x="32.607" y="40.131" fill="#D6D9DD" rx="2"/><rect width="18.811" height="18.811" x="53.926" y="40.131" fill="#D6D9DD" rx="2"/><rect width="18.811" height="18.811" x="75.246" y="40.131" fill="#D6D9DD" rx="2"/><rect width="18.811" height="18.811" x="96.566" y="40.131" fill="#D6D9DD" rx="2"/><path fill="#D6D9DD" d="M119.885 40.131h8.033v18.812h-8.033a2 2 0 0 1-2-2V42.13a2 2 0 0 1 2-2Z"/></g></svg>
